public/static/icons/ic_github.svg

<svg height="24" viewBox="0 0 24 24" width="24" xmlns="http://www.w3.org/2000/svg"><path d="m11.99925 0c-6.62625 0-11.99925 5.393546-11.99925 12.048322 0 5.3220135 3.438 9.837593 8.20725 11.430884.6.110687.819-.2612815.819-.580542 0-.28613-.0105-1.043621-.0165-2.04884-3.33825.728125-4.0425-1.615127-4.0425-1.615127-.54525-1.3914945-1.332-1.761957-1.332-1.761957-1.08975-.7477025.0825-.732643.0825-.732643 1.20375.085086 1.8375 1.2416525 1.8375 1.2416525 1.071 1.8410195 2.80875 1.3094205 3.49275 1.0007015.10875-.778574.41925-1.30942.762-1.6106095-2.66475-.304201-5.466-1.33728-5.466-5.953758 0-1.315444.46725-2.3906895 1.23525-3.2332665-.12375-.304954-.5355-1.529288.117-3.188088 0 0 1.008-.323778 3.3 1.234876.95775-.2673055 1.98375-.4005815 3.0045-.4058525 1.01925.005271 2.046.138547 3.0045.4058525 2.2905-1.558654 3.29625-1.234876 3.29625-1.234876.65475 1.6588.243 2.883134.11925 3.188088.7695.842577 1.23375 1.9178225 1.23375 3.2332665 0 4.6277725-2.80575 5.646545-5.47875 5.9447225.4305.3719685.8145 1.1068705.8145 2.231059 0 1.6106095-.015 2.909488-.015 3.304799 0 .3222725.216.697253.825.579036 4.76475-1.596303 8.19975-6.1088705 8.19975-11.429378 0-6.654776-5.373-12.048322-12.00075-12.048322" fill="#3e75c3" transform="translate(0 .5)"/></svg>

<svg xmlns="http://www.w3.org/2000/svg" width="24" height="24" viewBox="0 0 24 24">
  <path fill="#3E75C3" d="M11.99925,0 C5.373,0 0,5.393546 0,12.048322 C0,17.3703355 3.438,21.885915 8.20725,23.479206 C8.80725,23.589893 9.02625,23.2179245 9.02625,22.898664 C9.02625,22.612534 9.01575,21.855043 9.00975,20.849824 C5.6715,21.577949 4.96725,19.234697 4.96725,19.234697 C4.422,17.8432025 3.63525,17.47274 3.63525,17.47274 C2.5455,16.7250375 3.71775,16.740097 3.71775,16.740097 C4.9215,16.825183 5.55525,17.9817495 5.55525,17.9817495 C6.62625,19.822769 8.364,19.29117 9.048,18.982451 C9.15675,18.203877 9.46725,17.673031 9.81,17.3718415 C7.14525,17.0676405 4.344,16.0345615 4.344,11.4180835 C4.344,10.1026395 4.81125,9.027394 5.57925,8.184817 C5.4555,7.879863 5.04375,6.655529 5.69625,4.996729 C5.69625,4.996729 6.70425,4.672951 8.99625,6.231605 C9.954,5.9642995 10.98,5.8310235 12.00075,5.8257525 C13.02,5.8310235 14.04675,5.9642995 15.00525,6.231605 C17.29575,4.672951 18.3015,4.996729 18.3015,4.996729 C18.95625,6.655529 18.5445,7.879863 18.42075,8.184817 C19.19025,9.027394 19.6545,10.1026395 19.6545,11.4180835 C19.6545,16.045856 16.84875,17.0646285 14.17575,17.362806 C14.60625,17.7347745 14.99025,18.4696765 14.99025,19.593865 C14.99025,21.2044745 14.97525,22.503353 14.97525,22.898664 C14.97525,23.2209365 15.19125,23.595917 15.80025,23.4777 C20.565,21.881397 24,17.3688295 24,12.048322 C24,5.393546 18.627,0 11.99925,0" transform="translate(0 .5)"/>
</svg>
